src/images/icon-check-circle.svg

<svg fill="none" height="24" viewBox="0 0 24 24" width="24" xmlns="http://www.w3.org/2000/svg"><g stroke="#02ba87" stroke-linecap="round" stroke-linejoin="round" stroke-width="2"><path d="m22 11.0801v.92c-.0012 2.1564-.6995 4.2547-1.9907 5.9818-1.2911 1.7272-3.106 2.9907-5.1739 3.6021-2.068.6114-4.2781.538-6.30093-.2093-2.02279-.7473-3.74982-2.1285-4.92351-3.9375-1.17369-1.8091-1.73117-3.949-1.58928-6.1008.14188-2.15173.97553-4.19997 2.3766-5.83922s3.29451-2.78169 5.39791-3.25693c2.10341-.47523 4.30411-.2578 6.27381.61986"/><path d="m22 4-10 10.01-3-3"/></g></svg>

<svg width="24" height="24" viewBox="0 0 24 24" fill="none" xmlns="http://www.w3.org/2000/svg">
<path d="M22 11.0801V12.0001C21.9988 14.1565 21.3005 16.2548 20.0093 17.9819C18.7182 19.7091 16.9033 20.9726 14.8354 21.584C12.7674 22.1954 10.5573 22.122 8.53447 21.3747C6.51168 20.6274 4.78465 19.2462 3.61096 17.4372C2.43727 15.6281 1.87979 13.4882 2.02168 11.3364C2.16356 9.18467 2.99721 7.13643 4.39828 5.49718C5.79935 3.85793 7.69279 2.71549 9.79619 2.24025C11.8996 1.76502 14.1003 1.98245 16.07 2.86011" stroke="#02BA87" stroke-width="2" stroke-linecap="round" stroke-linejoin="round"/>
<path d="M22 4L12 14.01L9 11.01" stroke="#02BA87" stroke-width="2" stroke-linecap="round" stroke-linejoin="round"/>
</svg>
